src/lib/packages/icons/src/assets/line/more-horizontal.svg

<svg width="24" height="24" viewBox="0 0 24 24" fill="none" xmlns="http://www.w3.org/2000/svg">
<path d="M4.02002 13.5C3.19102 13.5 2.51501 12.829 2.51501 12C2.51501 11.171 3.18201 10.5 4.01001 10.5H4.02002C4.84902 10.5 5.52002 11.171 5.52002 12C5.52002 12.829 4.84902 13.5 4.02002 13.5ZM12.02 13.5C11.191 13.5 10.515 12.829 10.515 12C10.515 11.171 11.182 10.5 12.01 10.5H12.02C12.849 10.5 13.52 11.171 13.52 12C13.52 12.829 12.849 13.5 12.02 13.5ZM20.02 13.5C19.191 13.5 18.515 12.829 18.515 12C18.515 11.171 19.182 10.5 20.01 10.5H20.02C20.849 10.5 21.52 11.171 21.52 12C21.52 12.829 20.849 13.5 20.02 13.5Z" fill="currentColor"/>
</svg>

<svg xmlns="http://www.w3.org/2000/svg" width="24" height="24" fill="none"><path fill="currentColor" d="M4.02 13.5A1.504 1.504 0 0 1 2.515 12c0-.829.667-1.5 1.495-1.5h.01a1.5 1.5 0 1 1 0 3Zm8 0a1.504 1.504 0 0 1-1.505-1.5c0-.829.667-1.5 1.495-1.5h.01a1.5 1.5 0 1 1 0 3Zm8 0a1.504 1.504 0 0 1-1.505-1.5c0-.829.667-1.5 1.495-1.5h.01a1.5 1.5 0 1 1 0 3Z"/></svg>
